assets/codepen/original.svg

<svg viewBox="0 0 128 128" xmlns="http://www.w3.org/2000/svg"><path d="m125.571 39.926-58.5-39c-1.997-1.23-4.128-1.24-6.142 0l-58.5 39c-1.5 1-2.429 2.786-2.429 4.571v39c0 1.786.929 3.572 2.429 4.571l58.5 39.006c1.996 1.229 4.128 1.24 6.142 0l58.5-39.006c1.5-.999 2.429-2.785 2.429-4.57v-39c0-1.786-.929-3.572-2.429-4.572zm-56.07-24.144 43.07 28.715-19.214 12.858-23.857-15.93v-25.641zm-11.001 0v25.644l-23.858 15.928-19.214-12.856zm-47.5 39 13.786 9.215-13.786 9.215zm47.5 57.43-43.072-28.715 19.214-12.857 23.858 15.929zm5.5-35.215-19.428-13 19.428-13 19.428 13zm5.5 35.215v-25.643l23.857-15.929 19.214 12.857-43.07 28.715zm47.5-39-13.786-9.215 13.786-9.214z"/></svg>

<svg xmlns="http://www.w3.org/2000/svg" viewBox="0 0 128 128"><path d="m125.571 39.926-58.5-39c-1.997-1.23-4.128-1.24-6.142 0l-58.5 39C.929 40.926 0 42.712 0 44.497v39c0 1.786.929 3.572 2.429 4.571l58.5 39.006c1.996 1.229 4.128 1.24 6.142 0l58.5-39.006c1.5-.999 2.429-2.785 2.429-4.57v-39c0-1.786-.929-3.572-2.429-4.572m-56.07-24.144 43.07 28.715-19.214 12.858L69.5 41.425V15.784zm-11.001 0v25.644L34.642 57.354 15.428 44.498zm-47.5 39 13.786 9.215L11 73.212zm47.5 57.43L15.428 83.497 34.642 70.64 58.5 86.569zM64 76.997l-19.428-13 19.428-13 19.428 13zm5.5 35.215V86.569L93.357 70.64l19.214 12.857-43.07 28.715zm47.5-39-13.786-9.215L117 54.783z"/></svg>
